X:6091
T:Sl\'an Leat Go Br\'ath
T: Farewell for Evermore
O:england
H:From Norry Dwane of Glenosheen, 1846.
B:Joyce, P. W.; "Old Irish Folk Music and Songs"
R:song air
L:1/8
M:3/4
K:C
ABc|d2 ecAG|E2 C2 DE|F2 G2 A>B|c4 Ac|
d2 ecAG|E2 C2 DE|F2 A>GE>D|D4||
AG|A2 d2 d>e|fedfec|A2 c2 c>d|c4 AG|
A2 d2 d>e|f2 d2 ec|A2 d2 d>e|d4 de|
fedcAG|c2 A2 GA|EcAGED|C4 DE|
FGABce|d2 A2 AG|F2 A>GE>D|D4||
